!!!OTL: Kurze Passion Christi.
!!!ARE: Europa, Mitteleuropa, Deutschland
!!!SCT: A0548
!!!TXL: @@DE
!!!YEM: Copyright 1995, estate of Helmut Schaffrath.
**kern	**text	**text
*M4/1	*	*
*met(c|)	*	*
*clefC4	*	*
*k[b-]	*	*
*d:dor	*	*
!LO:TX:a:t=dor. tr.	!	!
1ryy	.	.
2ryy	.	.
{2A	A. Es	B. Es
=1	=1	=1
1B-	kam	kam
1G	ein	ein
1B-	ſcho̊-	En-
1c	-ner	-gel
=2	=2	=2
0d	En-	ſcho-
1.d}	-gel	-ne
{2d	von	vom
=3	=3	=3
1c	Him-	Him-
1A	-mel	-mel
1B-	hoch	hoch
1G	her-	her-
=4	=4	=4
0A	-ab	-ab
1r	.	.
2r}	.	.
{2G	Ʒur	Ʒur
=5	=5	=5
1A	rai-	Jungfraw
1d	-nen	.
1c	Jungfraw	Ma-
1c	.	-ria
=6	=6	=6
*lig	*	*
1G	Ma-	fro-
1G	-ri-	.
*Xlig	*	*
1F}	-a,	-ne,
{1B-	er	er
=7	=7	=7
1A	grůßt	grüßt
2G	ſie	ſie
2F	.	.
1G	al-	tu-
2F	-ſo	-gend-
2E	.	.
=8	=8	=8
!LO:TX:a:t=P:1D in the source:problem	!	!
!LO:N:vis=1	!	!
0D;}	ſchon.}	-ſam.}
!LO:TX:a:t=P:1G in the source:problem	!	!
!LO:N:vis=1	!	!
{0G	O	.
=9	=9	=9
*lig	*	*
2F	Ma-	.
2E	.	.
*Xlig	*	*
1D	-ri-	.
1C	-a!	.
1c	dein	.
=10	=10	=10
1.A	Frewd	.
2F	die	.
1G	hub	.
2F	ſich	.
2E	.	.
=11	=11	=11
1D/ll}	an.	.
==	==	==
!!!GTL: Geistliche Volkslieder
!!!AGN: Romanze, Ballade, Lied, religioeses Lied
!! Beuttner 1602 II No. 13. Variante von A0516.
!!!ONB: ESAC (Essen Associative Code) Database: ALTDEU
!!!AMT: simple quadruple
!!!AIN: vox
!!!EED: Helmut Schaffrath
!!!EEV: 1.0
!!!RDF**kern: l = terminal long
!!!AMD: Dorian
!!!URL-scan: https://rosdok.uni-rostock.de/mcrviewer/recordIdentifier/rosdok_ppn738218359/iview2/phys_0728.iview2?x=-494.5591133004925&y=1032.0950738629326&scale=0.4629418472063854&rotation=0&layout=singlePageLayout&logicalDiv=log_0007
!!!ENC: Anna Maria Matuszewska
!!!EEV: 2024/20/03
*-	*-	*-
